X:245
T:The Monaghan Jig
N:anon.
O:Ireland
B:Francis O'Neill: "The Dance Music of Ireland" (1907) no. 245
R:Double jig
Z:Transcribed by Frank Nordberg - http://www.musicaviva.com
N:Music Aviva - The Internet center for free sheet music downloads
M:6/8
L:1/8
K:Em
BGE TF2E|BGE FGA|BGE TF2E|AFD FGA|BGE TF2E|BGE FGA|dcB ABG|(FD)F AG|:EGB efg|Mfed edB|EGB dBG|MFDF AGF|EGB efg|fed edB|dcB ABG|(MFD)F AG|:Tg2e efe|geg bge|Tg2e efg|fdf agf|Tg2e efe|geg bge|dcB ABG|(MFD)F AG
